vendor/shopware/storefront/Resources/app/storefront/dist/assets/icon/default/marketing.svg

<svg xmlns="http://www.w3.org/2000/svg" width="24" height="24" viewBox="0 0 24 24">
  <path fill="#758CA3" fill-rule="evenodd" d="M6,14 L6,10.2256908 L2,10.2256908 L2,14 L6,14 Z M6,16.0043092 L2,16.0043092 C0.8954305,16.0043092 1.3527075e-16,15.1088787 0,14.0043092 L0,10.23 C-1.3527075e-16,9.12543052 0.8954305,8.23000002 2,8.23000002 L6,8.23000002 L6,8.22569083 L21.3675445,3.10317601 C22.4154311,2.75388046 23.5480711,3.32020044 23.8973666,4.36808707 C23.9653442,4.57202001 24,4.78557841 24,5.0005426 L24,19 C24,20.1045695 23.1045695,21 22,21 C21.7850358,21 21.5714774,20.9653442 21.3675445,20.8973666 L13.9990842,18.5491677 C13.9896223,18.8383733 13.9383612,19.1248834 13.8467384,19.3997519 C13.3227951,20.9715818 11.6238351,21.8210618 10.0520052,21.2971184 L8.0513167,20.6302223 C6.82629028,20.2218801 6,19.0754636 6,17.7841724 L6,16.0043092 Z M8,16.6373649 L8,17.7841724 C8,18.2146028 8.27543009,18.5967416 8.68377223,18.7328557 L10.6844607,19.3997519 C11.208404,19.5743996 11.774724,19.2912396 11.9493718,18.7672963 C11.9836892,18.6643439 12.0010198,18.556492 12.0006837,18.4479712 L12.0003854,17.9122175 L8,16.6373649 Z M8,9.66720927 L8,14.5584816 L22,19 L22,5.0005426 L8,9.66720927 Z"/>
</svg>

<svg xmlns="http://www.w3.org/2000/svg" width="24" height="24" viewBox="0 0 24 24"><path fill="#758CA3" fill-rule="evenodd" d="M6 14v-3.7743H2V14h4zm0 2.0043H2c-1.1046 0-2-.8954-2-2V10.23c0-1.1046.8954-2 2-2h4v-.0043l15.3675-5.1225c1.048-.3493 2.1806.217 2.5299 1.2649A2 2 0 0 1 24 5.0005V19c0 1.1046-.8954 2-2 2a2 2 0 0 1-.6325-.1026l-7.3684-2.3482a3 3 0 0 1-.1524.8506c-.5239 1.5718-2.2229 2.4213-3.7947 1.8973l-2.0007-.6669A3 3 0 0 1 6 17.7842v-1.7799zm2 .633v1.1469a1 1 0 0 0 .6838.9487l2.0007.6669c.5239.1746 1.0902-.1086 1.2649-.6325a1 1 0 0 0 .0513-.3193l-.0003-.5358L8 16.6374zm0-6.97v4.8912L22 19V5.0005L8 9.6672z"/></svg>
